X: 1
T: the KING'S HEAD
T: Soldier's Joy
O: Sarah Armstrong 1943
B: Sam Bayard, "Hill Country Tunes" 1944 #21
S: Played by Mrs Sarah Armstrong, (near) Derry, PA, Nov 5 1943.
N: This is the other name of Soldier's Joy, found in many old collections.
R: reel
M: 4/4
L: 1/8
Z:AK/Fiddler's Companion
K:D
B2 |\
A2 FG [DA]FDF | [D2A2][D2d2][D2d2] cB | A2 FG [DA]FDF | {F}GFED E2 FG | A FG [DA]FDF |
[D2A2][D2d2][D2d2]e2 | f2 af egfe | d2 [d2f2]d2 || de | f2 de f2 af | e2 cd e2g2 |
f2 de fgaf | edcB A4 | f2 de f2 af | e2 cd e2 g2 | f2 af egfe | d2 [d2f2] d2 |]
